icons/desktop/16/svg/external-link-16.svg

<svg width="16" height="16" viewBox="0 0 16 16" fill="none" xmlns="http://www.w3.org/2000/svg">
<path d="M8 2.5C6.39691 2.5 4.91858 2.59897 3.58594 2.75293C2.97243 2.82411 2.5 3.3559 2.5 3.99414V12.0029C2.5 12.6376 2.97987 13.1765 3.60938 13.249C5.21967 13.4344 6.69621 13.5 8 13.5C9.60309 13.5 11.0814 13.401 12.4141 13.2471C13.0276 13.1759 13.5 12.6441 13.5 12.0059V8H15V12.0059C15 13.3855 13.9763 14.5763 12.5859 14.7373C11.2006 14.8973 9.66484 15 8 15C6.64586 15 5.11208 14.9319 3.43848 14.7393C2.05011 14.5796 1 13.3982 1 12.0029V3.99414C1 2.61448 2.02371 1.42365 3.41406 1.2627C4.79938 1.10266 6.33516 1 8 1V2.5Z" fill="black"/>
<path d="M14.5186 1C14.7836 1 14.999 1.21547 14.999 1.48047V5.11914C14.9989 5.54605 14.4817 5.76097 14.1797 5.45801L12.8916 4.16895L8.28125 8.78027C8.13525 8.92627 7.94199 9 7.75 9C7.558 9 7.36573 8.92727 7.21973 8.78027C6.92673 8.48728 6.92673 8.01175 7.21973 7.71875L11.8301 3.1084L10.541 1.81934C10.239 1.51736 10.453 1.0001 10.8799 1H14.5186Z" fill="black"/>
</svg>

<!-- This Source Code Form is subject to the terms of the Mozilla Public
   - License, v. 2.0. If a copy of the MPL was not distributed with this
   - file, You can obtain one at http://mozilla.org/MPL/2.0/. -->
<svg xmlns="http://www.w3.org/2000/svg" width="16" height="16" fill="context-fill" fill-opacity="context-fill-opacity" viewBox="0 0 16 16">
    <path d="M8 2.5c-1.603 0-3.081.099-4.414.253A1.24 1.24 0 0 0 2.5 3.994v8.009c0 .635.48 1.174 1.11 1.246a38.487 38.487 0 0 0 8.805-.002 1.24 1.24 0 0 0 1.085-1.241V8H15v4.006c0 1.38-1.024 2.57-2.414 2.731a40 40 0 0 1-9.148.002A2.76 2.76 0 0 1 1 12.003V3.994c0-1.38 1.024-2.57 2.414-2.731A40 40 0 0 1 8 1z" />
    <path d="M14.519 1a.48.48 0 0 1 .48.48v3.64a.48.48 0 0 1-.82.338l-1.287-1.29-4.61 4.612A.75.75 0 0 1 7.22 7.72l4.61-4.61-1.289-1.29A.48.48 0 0 1 10.88 1z" />
</svg>
